apps/site/public/icons/companies/sqlserver.svg

<svg width="48" height="49" viewBox="0 0 48 49" fill="none" xmlns="http://www.w3.org/2000/svg">
<g clip-path="url(#clip0_4437_8759)">
<path d="M27.9414 23.1079C27.868 22.8877 27.1344 23.3279 26.9142 23.4013C27.1664 24.9299 27.3135 26.4741 27.3544 28.0229C25.6439 27.0884 24.0014 26.0344 22.4394 24.8684L21.9259 25.0886V24.8684L21.1924 25.0886C20.9722 25.2352 21.0456 25.0886 21.0456 25.382C21.2033 27.4937 20.9287 29.6155 20.2386 31.6175C18.7714 30.3703 17.3777 28.6097 17.0109 26.9958C16.8549 27.0877 16.6782 27.1382 16.4973 27.1426C16.2773 27.216 16.2039 27.1426 16.2773 27.3627C16.887 29.2999 18.0938 30.9947 19.7252 32.2044C18.3313 32.7178 16.7909 33.3048 15.0302 33.8916C14.4433 34.1116 13.563 34.3318 12.6094 34.6986C14.0802 32.3447 15.2857 29.8352 16.2039 27.216L15.1036 27.6561C14.0213 30.0778 12.7456 32.4083 11.2889 34.6252C11.2155 34.6986 11.2155 34.7719 11.1422 34.8452C10.7385 34.1124 10.491 33.3037 10.4152 32.4704C10.3395 31.6372 10.4371 30.7972 10.702 30.0035C10.7754 29.7101 9.74836 30.4437 9.675 30.5171C9.38157 30.6639 9.38157 30.8839 9.30821 31.1773C9.21928 31.6369 9.17019 32.1032 9.1615 32.5712C9.19585 33.6425 9.52591 34.6834 10.1152 35.5789C7.84103 36.2391 5.27348 37.0461 2.77929 37.7063V37.4861C3.14608 35.7255 4.90669 33.4514 6.96074 32.2776L7.47424 31.6908L4.68662 33.5982C3.36616 34.6986 1.89899 36.4591 1.53219 38.0731C1.01868 40.4206 2.77929 42.2545 4.68662 43.6483C6.75038 45.0081 9.03365 46.0008 11.4356 46.5826C15.0853 47.5004 18.8242 48.017 22.5861 48.1232H23.0997C23.1632 48.0334 23.2126 47.9345 23.2463 47.8298C23.4665 47.3896 26.7676 41.2274 27.6478 36.0189C28.6366 31.7818 28.7365 27.3856 27.9414 23.1079ZM21.9259 25.3086C23.6393 26.4338 25.4286 27.4388 27.281 28.3163C25.3487 29.6925 23.2546 30.8258 21.0456 31.6908C21.7551 29.6418 22.0542 27.4731 21.9259 25.3086ZM15.9105 34.7719C17.1601 34.3528 18.3847 33.863 19.5784 33.3048C18.6749 35.4785 17.6208 37.5866 16.424 39.6136C15.8597 39.3145 15.32 38.971 14.8101 38.5865C13.762 37.8409 12.8236 36.9519 12.0225 35.9457C13.3429 35.5789 14.6634 35.2121 15.9105 34.7719ZM2.99936 38.0731C5.34684 37.4861 7.84103 36.9727 10.3352 36.3857C8.50127 39.1 6.88738 41.0808 6.00708 42.6213C4.5399 41.521 3.07272 39.8336 2.99936 38.0731ZM6.30051 42.8413C7.76768 40.6406 9.60165 38.6599 11.2155 36.6793C11.6173 37.1787 12.0589 37.6449 12.536 38.0731C13.3744 38.8324 14.3122 39.4739 15.3236 39.9804C12.448 41.0074 9.51363 42.1078 6.6673 43.0614C6.52702 43.0235 6.40004 42.9472 6.30051 42.8413ZM12.6094 45.8491C12.4626 45.7757 12.3159 45.7757 12.1692 45.7023C10.3268 45.1809 8.57171 44.3897 6.96074 43.3549C8.13448 42.9881 13.2696 41.6676 15.6904 40.8606C14.2966 43.1347 13.0495 44.9687 12.6094 45.8491ZM22.9529 47.683C20.9722 47.463 16.9375 46.8027 14.2232 46.2892C17.9645 45.4089 20.4588 45.0421 24.7135 42.9881C23.9799 44.9687 23.3197 46.876 22.9529 47.683ZM13.563 45.9958C13.4123 46.014 13.2595 45.9885 13.1229 45.9224C14.5172 44.3053 15.7921 42.5891 16.9375 40.7874C19.4156 41.8082 22.0405 42.4272 24.7135 42.6213C22.9529 43.3549 14.0032 45.9224 13.563 45.9958ZM26.6208 36.4591C26.1393 38.4935 25.5516 40.5015 24.8603 42.4746C22.3258 42.0417 19.8593 41.2772 17.5244 40.2004C20.0186 39.1734 25.3004 36.7525 26.6942 35.7989C26.6942 36.0189 26.6208 36.2391 26.6208 36.4591ZM26.841 35.3587C25.3738 36.2391 20.3854 38.1464 18.0379 39.0267C19.1485 37.0953 20.058 35.055 20.7522 32.938C22.6529 34.0375 24.7042 34.853 26.841 35.3587ZM26.841 35.0653C24.8804 34.5122 23.0223 33.6451 21.339 32.4978C23.451 31.4597 25.4645 30.2319 27.3544 28.8299C27.3508 30.9188 27.1792 33.004 26.841 35.0653Z" fill="url(#paint0_radial_4437_8759)"/>
<path d="M10.9233 6.60228C9.96963 5.8687 10.9967 4.84167 11.5835 4.40152C11.8036 4.18145 12.097 4.03473 12.3171 3.81466C13.0507 4.69495 14.8847 7.04243 15.6183 7.77603L16.9387 7.70267C16.2785 7.11579 13.4909 4.32816 12.6839 3.59458C15.3631 4.38612 18.1161 4.90231 20.9002 5.1351V5.20848C19.5371 5.88968 18.2143 6.64899 16.9387 7.4826L18.0391 7.62931C19.16 7.06682 20.1969 6.35081 21.1202 5.50191C21.5966 6.55735 22.1305 7.5859 22.7194 8.58297L23.7464 8.72968C21.839 5.42855 20.4452 2.49419 19.8584 0C18.4792 0.440152 10.9233 3.08106 9.51481 4.91503C8.85458 5.64863 10.3951 6.23549 10.9086 6.60228H10.9233ZM19.5796 0.366794C19.7121 1.82764 20.0581 3.26116 20.6066 4.6216C18.846 4.18145 14.5912 3.52122 13.0507 3.37451C15.1221 2.15825 17.3091 1.15073 19.5796 0.366794Z" fill="url(#paint1_radial_4437_8759)"/>
<path d="M45.3998 19.0731C42.7591 14.965 38.7976 11.1504 26.8401 8.94962C24.346 8.50947 21.3383 8.14268 16.0564 7.18901C14.2225 6.89557 8.72056 6.01527 9.38079 4.91489C9.2527 5.07845 9.19468 5.2861 9.21944 5.49237C9.24418 5.69862 9.34969 5.88666 9.51282 6.01527C12.2271 9.09633 16.1885 10.9303 16.1885 17.2391C16.1885 23.0346 10.98 28.463 5.69818 32.7911C5.38708 33.0137 5.09285 33.259 4.81787 33.5249C9.60718 30.5516 14.6972 28.0926 20.0031 26.1889C26.1652 23.7681 38.4162 20.3202 45.4586 19.3665L45.3998 19.0731ZM35.1297 12.3975C35.8633 12.6909 36.5235 12.9843 37.1838 13.2778C34.0773 13.9447 31.0339 14.8774 28.0873 16.0654C28.9582 14.372 29.5054 12.531 29.7012 10.6369C31.5204 11.1504 33.3691 11.7372 35.1297 12.3975ZM26.8401 16.2122C25.6221 15.4745 24.3464 14.8367 23.0254 14.3048C24.9657 12.9178 27.0003 11.6677 29.1143 10.5635C29.0409 11.9573 28.3073 13.8646 26.8401 16.2122ZM16.6434 13.7179C18.0459 14.0152 19.4202 14.4324 20.7515 14.965C19.3699 16.0942 18.0477 17.294 16.79 18.5597C16.9644 16.9466 16.9151 15.3174 16.6434 13.7179ZM21.2503 15.6986C20.8029 17.5653 20.06 19.3484 19.0494 20.9804C18.4659 20.3129 17.7385 19.7861 16.922 19.4399C18.2575 18.0738 19.7052 16.8223 21.2503 15.6986ZM22.1305 15.4786C23.2309 15.992 24.4046 16.5789 25.5784 17.1657C23.7947 17.9838 22.0777 18.9405 20.4433 20.0268C21.2849 18.6279 21.8619 17.0862 22.1452 15.4786H22.1305ZM28.4393 10.4168C26.292 11.2845 24.2494 12.3919 22.3507 13.7179C22.4137 12.1304 22.1126 10.5495 21.4703 9.09633C23.8324 9.46312 26.1065 9.90327 28.4541 10.4168H28.4393ZM20.9567 9.02297C21.4565 10.5597 21.6312 12.1834 21.4703 13.7913C19.9297 13.2778 18.3158 12.8376 16.8486 12.4708C18.1116 11.2003 19.4866 10.0464 20.9567 9.02297ZM11.1267 6.82221C12.007 7.11565 13.034 7.40908 14.2078 7.70251C14.7213 9.16969 15.0881 10.4902 15.4549 11.6639C14.3657 9.77027 12.8972 8.12197 11.1414 6.82221H11.1267ZM14.7213 7.84923C16.8486 8.36275 19.1228 8.72954 20.4433 8.94962C18.8951 9.74878 17.4837 10.7888 16.2618 12.0307C15.8774 10.5946 15.3668 9.19539 14.736 7.84923H14.7213ZM16.3352 20.6136C16.919 20.878 17.4624 21.2239 17.949 21.6406C16.702 22.521 15.5282 23.4013 14.5746 24.2082C15.3681 23.1207 15.9686 21.9049 16.3499 20.6136H16.3352ZM13.6943 25.5287C14.6479 24.8685 15.9684 23.9148 17.6556 22.8144C15.8805 24.9732 13.7462 26.8097 11.3468 28.243C12.2139 27.4108 13.0045 26.5024 13.7089 25.5287H13.6943ZM12.5205 28.3163C14.8948 26.7294 16.9999 24.7729 18.756 22.521C19.353 23.2588 19.7339 24.1474 19.8564 25.0885C17.0102 26.2623 14.736 27.1426 12.5352 28.3163H12.5205ZM20.3845 24.9417C20.3886 23.7922 20.1116 22.6589 19.5777 21.6406C21.3383 20.6136 23.319 19.5133 25.5197 18.4129C23.9348 20.686 22.2203 22.866 20.3845 24.9417ZM21.1915 24.6483C23.4169 22.7239 25.3669 20.5022 26.9869 18.0461C28.5287 19.0057 29.9561 20.138 31.2416 21.4206C28.3073 22.2276 24.9182 23.2546 21.1915 24.6483ZM31.9752 21.2006C30.9796 19.5987 29.6844 18.2039 28.1607 17.0924C31.2545 15.7207 34.4414 14.5686 37.6972 13.6446C36.5968 15.6252 34.7629 17.6793 31.9752 21.2006ZM32.9289 20.9804C35.2088 19.0248 37.036 16.5967 38.2842 13.8646C40.6699 15.1345 42.8072 16.8244 44.593 18.8531C44.6766 18.9436 44.776 19.0182 44.8864 19.0731C40.8484 19.3223 36.8439 19.961 32.9289 20.9804Z" fill="url(#paint2_radial_4437_8759)"/>
<path d="M25.7422 46.8029H25.3023V48.1225H25.1556V46.8029H24.7158V46.6562H25.7422" fill="#231F20"/>
<path d="M27.4253 48.122H27.2788V46.8024C27.2788 46.8757 27.2788 46.9489 27.2055 46.9489L26.6922 48.0486H26.6189L26.1058 46.9489C26.1004 46.8927 26.0742 46.8404 26.0324 46.8024V48.0486H25.8857V46.5824H26.1058L26.5457 47.6089C26.5533 47.6643 26.579 47.7159 26.6189 47.7554C26.6267 47.6998 26.6524 47.6484 26.6922 47.6089L27.1321 46.5824H27.352" fill="#231F20"/>
</g>
<defs>
<radialGradient id="paint0_radial_4437_8759" cx="0" cy="0" r="1" gradientUnits="userSpaceOnUse" gradientTransform="translate(30.9751 20.8062) scale(42.3497)">
<stop stop-color="white"/>
<stop offset="0.87" stop-color="#99A5B4"/>
<stop offset="0.99" stop-color="#8A97A8"/>
</radialGradient>
<radialGradient id="paint1_radial_4437_8759" cx="0" cy="0" r="1" gradientUnits="userSpaceOnUse" gradientTransform="translate(26.1593 11.1934) scale(20.7364 20.7364)">
<stop stop-color="white"/>
<stop offset="0.87" stop-color="#99A5B4"/>
<stop offset="0.99" stop-color="#8A97A8"/>
</radialGradient>
<radialGradient id="paint2_radial_4437_8759" cx="0" cy="0" r="1" gradientUnits="userSpaceOnUse" gradientTransform="translate(20.7382 19.9716) scale(17.5673 17.5673)">
<stop stop-color="#E23126"/>
<stop offset="1" stop-color="#B92226"/>
</radialGradient>
<clipPath id="clip0_4437_8759">
<rect width="45.1157" height="48.1235" fill="white" transform="translate(1.44189)"/>
</clipPath>
</defs>
</svg>

<svg xmlns="http://www.w3.org/2000/svg" width="48" height="49" fill="none" viewBox="0 0 48 49"><g clip-path="url(#a)"><path fill="url(#b)" d="M27.941 23.108c-.073-.22-.807.22-1.027.293.252 1.529.4 3.073.44 4.622a41 41 0 0 1-4.915-3.155l-.513.22v-.22l-.734.22c-.22.147-.146 0-.146.294a15.6 15.6 0 0 1-.807 6.235c-1.468-1.247-2.861-3.007-3.228-4.621a1.06 1.06 0 0 1-.514.147c-.22.073-.293 0-.22.22a9.63 9.63 0 0 0 3.448 4.841c-1.394.514-2.934 1.1-4.695 1.688-.587.22-1.467.44-2.42.807a37.6 37.6 0 0 0 3.594-7.483l-1.1.44a49.4 49.4 0 0 1-3.815 6.97c-.073.073-.073.146-.147.22a6.06 6.06 0 0 1-.44-4.842c.073-.294-.954.44-1.027.513-.293.147-.293.367-.367.66q-.134.691-.146 1.394a5.8 5.8 0 0 0 .953 3.008c-2.274.66-4.842 1.467-7.336 2.127v-.22c.367-1.76 2.128-4.035 4.182-5.208l.513-.587-2.787 1.907c-1.32 1.1-2.788 2.861-3.155 4.475-.513 2.348 1.247 4.182 3.155 5.575a21.4 21.4 0 0 0 6.749 2.935 51.7 51.7 0 0 0 11.15 1.54h.514q.095-.135.146-.293c.22-.44 3.522-6.603 4.402-11.811a31.5 31.5 0 0 0 .293-12.911m-6.015 2.2a44 44 0 0 0 5.355 3.008 29 29 0 0 1-6.235 3.375 16.5 16.5 0 0 0 .88-6.382m-6.015 9.464q1.876-.63 3.667-1.467a51 51 0 0 1-3.154 6.309q-.848-.45-1.614-1.027a13.8 13.8 0 0 1-2.787-2.641c1.32-.367 2.64-.734 3.888-1.174m-12.912 3.3c2.348-.587 4.842-1.1 7.336-1.687C8.501 39.1 6.887 41.08 6.007 42.62 4.54 41.521 3.073 39.834 3 38.073m3.302 4.768c1.467-2.2 3.3-4.181 4.915-6.162q.603.751 1.32 1.394c.838.76 1.776 1.4 2.788 1.907-2.876 1.027-5.81 2.128-8.657 3.081a.8.8 0 0 1-.366-.22m6.308 3.008c-.146-.073-.293-.073-.44-.147a19.4 19.4 0 0 1-5.208-2.347c1.173-.367 6.309-1.687 8.73-2.494-1.394 2.274-2.642 4.108-3.082 4.988m10.344 1.834c-1.98-.22-6.015-.88-8.73-1.394 3.742-.88 6.236-1.247 10.49-3.3-.733 1.98-1.393 3.887-1.76 4.694m-9.39-1.687a.8.8 0 0 1-.44-.074 44 44 0 0 0 3.815-5.135 25.2 25.2 0 0 0 7.776 1.834c-1.761.734-10.71 3.301-11.151 3.375m13.058-9.537a60 60 0 0 1-1.76 6.016 29.3 29.3 0 0 1-7.337-2.275c2.495-1.027 7.776-3.448 9.17-4.401 0 .22-.073.44-.073.66m.22-1.1c-1.467.88-6.456 2.787-8.803 3.668a32.6 32.6 0 0 0 2.714-6.089c1.9 1.1 3.952 1.915 6.089 2.42m0-.294a18.9 18.9 0 0 1-5.502-2.567 39 39 0 0 0 6.015-3.668 39 39 0 0 1-.513 6.235"/><path fill="url(#c)" d="M10.923 6.602c-.953-.733.074-1.76.66-2.2.22-.22.514-.367.734-.587.734.88 2.568 3.227 3.301 3.961l1.32-.073c-.66-.587-3.447-3.375-4.254-4.108a41 41 0 0 0 8.216 1.54v.073a40 40 0 0 0-3.961 2.275l1.1.146a13.5 13.5 0 0 0 3.081-2.127 32 32 0 0 0 1.6 3.081l1.026.147c-1.907-3.301-3.3-6.236-3.888-8.73-1.379.44-8.935 3.081-10.343 4.915-.66.734.88 1.32 1.394 1.687zM19.58.367c.132 1.46.478 2.894 1.027 4.255-1.761-.44-6.016-1.1-7.556-1.247A36.3 36.3 0 0 1 19.58.367"/><path fill="url(#d)" d="M45.4 19.073c-2.64-4.108-6.602-7.923-18.56-10.123-2.494-.44-5.502-.807-10.784-1.761-1.834-.293-7.335-1.174-6.675-2.274a.785.785 0 0 0 .132 1.1c2.714 3.081 6.676 4.915 6.676 11.224 0 5.796-5.209 11.224-10.49 15.552a8 8 0 0 0-.881.734 80 80 0 0 1 15.185-7.336c6.162-2.42 18.413-5.869 25.456-6.823zm-10.27-6.675a58 58 0 0 1 2.054.88c-3.107.667-6.15 1.6-9.097 2.787a15.3 15.3 0 0 0 1.614-5.428c1.82.513 3.668 1.1 5.429 1.76m-8.29 3.814a26.4 26.4 0 0 0-3.815-1.907 51 51 0 0 1 6.09-3.742c-.074 1.394-.808 3.302-2.275 5.65m-10.197-2.494c1.403.297 2.777.714 4.108 1.247a52 52 0 0 0-3.961 3.595 17.6 17.6 0 0 0-.147-4.842m4.607 1.98a18 18 0 0 1-2.2 5.282 5.9 5.9 0 0 0-2.128-1.54 34 34 0 0 1 4.328-3.741m.88-.22c1.1.514 2.275 1.1 3.448 1.688a37.6 37.6 0 0 0-5.135 2.86 13.3 13.3 0 0 0 1.702-4.547zm6.31-5.061a30.8 30.8 0 0 0-6.09 3.3 10.4 10.4 0 0 0-.88-4.62c2.362.366 4.637.806 6.984 1.32zm-7.483-1.394c.5 1.537.674 3.16.513 4.768a64 64 0 0 0-4.621-1.32 30 30 0 0 1 4.108-3.448m-9.83-2.2q1.32.44 3.08.88c.514 1.467.881 2.787 1.248 3.96a15.9 15.9 0 0 0-4.314-4.84zm3.594 1.026c2.128.514 4.402.88 5.722 1.1a16.5 16.5 0 0 0-4.181 3.082 25 25 0 0 0-1.526-4.182zm1.614 12.765c.584.264 1.127.61 1.614 1.027-1.247.88-2.42 1.76-3.374 2.567a11.7 11.7 0 0 0 1.775-3.594zm-2.64 4.915c.953-.66 2.273-1.614 3.96-2.715a24.3 24.3 0 0 1-6.308 5.429 20 20 0 0 0 2.362-2.714zm-1.174 2.787a26.8 26.8 0 0 0 6.235-5.795 5.14 5.14 0 0 1 1.1 2.567c-2.846 1.174-5.12 2.055-7.32 3.228zm7.863-3.374a7.06 7.06 0 0 0-.806-3.301 105 105 0 0 1 5.942-3.228 72 72 0 0 1-5.135 6.529m.808-.294a32 32 0 0 0 5.795-6.602c1.542.96 2.97 2.092 4.255 3.375a117 117 0 0 0-10.05 3.227m10.783-3.447a14.7 14.7 0 0 0-3.814-4.109 72 72 0 0 1 9.536-3.447c-1.1 1.98-2.934 4.034-5.722 7.556m.954-.22a20.7 20.7 0 0 0 5.355-7.116 22.5 22.5 0 0 1 6.309 4.988q.127.136.293.22c-4.038.25-8.042.888-11.957 1.907"/><path fill="#231f20" d="M25.742 46.803h-.44v1.32h-.146v-1.32h-.44v-.147h1.026m1.683 1.466h-.146v-1.32c0 .074 0 .147-.073.147l-.514 1.1h-.073l-.513-1.1a.23.23 0 0 0-.074-.147v1.247h-.146v-1.467h.22l.44 1.027a.26.26 0 0 0 .073.146.26.26 0 0 1 .073-.146l.44-1.027h.22"/></g><defs><radialGradient id="b" cx="0" cy="0" r="1" gradientTransform="translate(30.975 20.806)scale(42.3497)" gradientUnits="userSpaceOnUse"><stop stop-color="#fff"/><stop offset=".87" stop-color="#99a5b4"/><stop offset=".99" stop-color="#8a97a8"/></radialGradient><radialGradient id="c" cx="0" cy="0" r="1" gradientTransform="translate(26.16 11.193)scale(20.7364)" gradientUnits="userSpaceOnUse"><stop stop-color="#fff"/><stop offset=".87" stop-color="#99a5b4"/><stop offset=".99" stop-color="#8a97a8"/></radialGradient><radialGradient id="d" cx="0" cy="0" r="1" gradientTransform="translate(20.738 19.972)scale(17.5673)" gradientUnits="userSpaceOnUse"><stop stop-color="#e23126"/><stop offset="1" stop-color="#b92226"/></radialGradient><clipPath id="a"><path fill="#fff" d="M1.442 0h45.116v48.123H1.442z"/></clipPath></defs></svg>
